img/svg/old/telephone-receiver_icon-icons.com_56033 1.svg

<svg width="32" height="32" viewBox="0 0 32 32" fill="none" xmlns="http://www.w3.org/2000/svg">
<g id="telephone-receiver_icon-icons.com_56033 1">
<path id="Vector" d="M27.6549 22.9573L27.4816 22.7413C26.1096 21.0066 24.9629 20.104 23.9789 19.9853C23.1282 19.8693 22.3056 20.4573 21.4309 21.0626L20.4962 21.6466C20.3842 21.7026 20.2736 21.748 20.1696 21.7786C19.6229 21.9333 18.2429 22.024 17.4616 21.3093C16.5522 20.4773 15.1416 18.9546 14.0442 17.624C12.9962 16.2466 11.8442 14.5293 11.2429 13.448C10.7349 12.532 11.1602 11.2506 11.4442 10.776C11.5002 10.6826 11.5736 10.5906 11.6549 10.5L12.4789 9.73865C12.4909 9.72665 12.4962 9.71198 12.5069 9.70131C12.5149 9.69331 12.5282 9.69598 12.5376 9.68931C13.2816 9.06131 14.0509 8.41465 14.1562 7.58398C14.2802 6.60798 13.6736 5.28798 12.2989 3.55465L12.1309 3.33865C11.2802 2.24798 9.99357 0.598646 8.14557 0.870646C7.4189 0.978646 6.76957 1.22665 6.10023 1.64665C6.09357 1.65065 6.08957 1.65865 6.08423 1.66265C6.0789 1.66665 6.07223 1.66665 6.0669 1.67065L5.1349 2.36131C5.12557 2.36665 5.12023 2.37865 5.1109 2.38665C5.10423 2.39331 5.09357 2.39465 5.08557 2.40131C4.97757 2.49198 4.86957 2.58531 4.7629 2.68131C3.81757 3.52398 1.7709 5.97065 3.1669 10.496C4.06823 13.4186 5.9269 16.8293 8.5549 20.3786L8.52957 20.4L9.9789 22.2053L9.9909 22.196C12.8402 25.5666 15.7402 28.172 18.3976 29.7493C20.1709 30.8026 21.7202 31.1506 22.9949 31.1506C24.6722 31.1506 25.8736 30.548 26.4762 30.156L26.8549 29.9026C26.8976 29.8733 26.9282 29.832 26.9589 29.7946L27.7842 29.1733C27.7936 29.1653 27.7989 29.1546 27.8082 29.1466C27.8122 29.1426 27.8189 29.144 27.8242 29.14C28.4109 28.604 28.8176 28.0426 29.1002 27.3773C29.8322 25.672 28.5216 24.0386 27.6549 22.9573ZM28.1202 26.9586C27.9002 27.476 27.5789 27.916 27.1149 28.3426L25.8869 29.2666C24.7749 29.9893 22.3976 30.8826 18.9442 28.832C16.2869 27.2546 13.3616 24.588 10.4829 21.12L9.70423 20.136C6.99357 16.5413 5.0869 13.0986 4.1869 10.1813C3.01757 6.38798 4.4909 4.35331 5.47757 3.47465C5.57757 3.38398 5.67757 3.29998 5.77623 3.21598L5.78023 3.21198L6.6749 2.54931C7.2189 2.20531 7.7229 2.01331 8.3029 1.92531C9.54157 1.73865 10.5496 3.04531 11.2896 3.99465L11.4629 4.21465C12.9989 6.15198 13.1469 7.07331 13.0989 7.44931C13.0456 7.86665 12.4109 8.40131 11.8509 8.87198L11.7722 8.93865C11.7696 8.94131 11.7682 8.94531 11.7656 8.94798C11.7616 8.95065 11.7576 8.95198 11.7536 8.95465L10.9016 9.74265C10.8962 9.74798 10.8936 9.75465 10.8882 9.76131C10.8829 9.76798 10.8722 9.77065 10.8669 9.77731C10.7349 9.92531 10.6216 10.0733 10.5296 10.2266C10.0509 11.028 9.5989 12.684 10.3122 13.9653C10.9349 15.0853 12.1202 16.8546 13.2096 18.284C14.3482 19.6653 15.8002 21.2333 16.7416 22.0933C17.4469 22.7373 18.4282 22.9533 19.2776 22.9533C19.7322 22.9533 20.1496 22.8906 20.4656 22.8013C20.6322 22.7533 20.8042 22.684 20.9816 22.5973C20.9922 22.592 20.9976 22.5826 21.0082 22.576C21.0136 22.5733 21.0216 22.5746 21.0269 22.5706L22.0162 21.952C22.0482 21.9306 22.0696 21.9026 22.0962 21.876L22.1082 21.8893C22.7176 21.4666 23.4122 20.9706 23.8469 21.0426C24.2322 21.0893 25.1069 21.46 26.6456 23.4026L26.8229 23.6253C27.5722 24.56 28.5989 25.84 28.1202 26.9586Z" fill="#011C44"/>
</g>
</svg>

<svg xmlns="http://www.w3.org/2000/svg" fill="none" viewBox="0 0 32 32">
  <path fill="#011C44" d="m27.655 22.957-.173-.216c-1.372-1.734-2.52-2.637-3.503-2.756-.85-.116-1.673.472-2.548 1.078l-.935.584a2.014 2.014 0 0 1-.326.132c-.547.154-1.927.245-2.708-.47-.91-.832-2.32-2.354-3.418-3.685-1.048-1.377-2.2-3.095-2.801-4.176-.508-.916-.083-2.197.201-2.672.056-.093.13-.185.21-.276l.825-.761c.012-.012.017-.027.028-.038.008-.008.021-.005.03-.012.745-.628 1.514-1.274 1.62-2.105.123-.976-.483-2.296-1.858-4.03l-.168-.215C11.28 2.248 9.994.599 8.146.87c-.727.108-1.376.356-2.046.776-.006.004-.01.012-.016.016-.005.004-.012.004-.017.008l-.932.69c-.01.006-.015.018-.024.026-.007.006-.017.008-.025.014a13.74 13.74 0 0 0-.323.28c-.945.843-2.992 3.29-1.596 7.815.901 2.923 2.76 6.333 5.388 9.883l-.025.021 1.449 1.805.012-.009c2.85 3.37 5.75 5.976 8.407 7.553 1.773 1.054 3.322 1.402 4.597 1.402 1.677 0 2.879-.603 3.481-.995l.379-.253c.043-.03.073-.071.104-.108l.825-.622c.01-.008.015-.018.024-.026.004-.004.01-.003.016-.007.587-.536.994-1.097 1.276-1.763.732-1.705-.578-3.338-1.445-4.42Zm.465 4.002c-.22.517-.541.957-1.005 1.384l-1.228.924c-1.112.722-3.49 1.616-6.943-.435-2.657-1.577-5.582-4.244-8.461-7.712l-.779-.984c-2.71-3.595-4.617-7.037-5.517-9.955-1.17-3.793.304-5.828 1.29-6.706.1-.091.2-.175.3-.259l.003-.004.895-.663a4.067 4.067 0 0 1 1.628-.624c1.239-.186 2.247 1.12 2.987 2.07l.173.22c1.536 1.937 1.684 2.858 1.636 3.234-.053.418-.688.952-1.248 1.423l-.079.067-.006.009-.012.007-.852.788c-.006.005-.008.012-.014.018-.005.007-.016.01-.021.016a2.996 2.996 0 0 0-.337.45c-.48.801-.931 2.457-.218 3.738.623 1.12 1.808 2.89 2.898 4.319 1.138 1.381 2.59 2.95 3.532 3.81.705.643 1.686.86 2.536.86.454 0 .872-.063 1.188-.153.166-.048.338-.117.516-.204.01-.005.016-.014.026-.021.006-.003.014-.001.019-.005l.99-.619c.031-.021.053-.05.08-.076l.011.013c.61-.422 1.304-.918 1.739-.846.385.046 1.26.417 2.799 2.36l.177.222c.75.935 1.776 2.215 1.297 3.334Z"/>
</svg>
